assets/v1/icons/yarn.svg

<svg xmlns="http://www.w3.org/2000/svg" width="16" height="16" viewBox="0 0 16 16">
  <path fill="#2C8EBB" d="M15.0925031,11.2277174 C15.0185368,10.6442053 14.525428,10.2414998 13.892605,10.2497183 C12.9474797,10.262046 12.1543963,10.7510456 11.6284136,11.0756756 C11.4229516,11.203062 11.2462542,11.2975745 11.0942124,11.3674316 C11.1270863,10.8907597 11.0983216,10.2661552 10.8517672,9.5799121 C10.5517926,8.75806405 10.1490871,8.2526275 9.86144028,7.96087144 C10.1942887,7.47598109 10.6504144,6.76919177 10.8640949,5.67613386 C11.0490107,4.74333632 10.9914814,3.29277451 10.5682296,2.47914494 C10.4819356,2.31477533 10.3381122,2.19560737 10.1573056,2.14629648 C10.0833393,2.12575028 9.94362509,2.08465788 9.66830599,2.16273345 C9.25327272,1.30390223 9.10944931,1.21349895 8.99849983,1.13953262 C8.76838237,0.991599972 8.49717252,0.95872605 8.24239962,1.05323858 C7.90133268,1.17651578 7.60957662,1.505255 7.33425753,2.08876712 C7.29316512,2.17506117 7.25618196,2.25724597 7.22330804,2.33943078 C6.70143453,2.37641394 5.87958647,2.56543899 5.18512487,3.31742996 C5.09883083,3.41194248 4.93035198,3.48179957 4.75365465,3.54754741 L4.75776389,3.54754741 C4.39615074,3.67493386 4.23178113,3.97079916 4.03042836,4.50500039 C3.75100002,5.25288212 4.03864684,5.98843612 4.32218442,6.46510799 C3.93591583,6.81028417 3.4222608,7.36092237 3.15105095,8.00607309 C2.81409325,8.8032657 2.77711008,9.58402134 2.7894378,10.0072731 C2.50179099,10.3113569 2.05799304,10.8825413 2.00868216,11.5235827 C1.94293431,12.4193971 2.26756429,13.0275647 2.4113877,13.2494637 C2.4524801,13.3152115 2.49768175,13.3686316 2.54699263,13.4220517 C2.53055567,13.5330012 2.52644643,13.6521692 2.55110187,13.7754464 C2.60452199,14.0630932 2.78532856,14.2973199 3.06064766,14.4452526 C3.60306737,14.7328994 4.35916758,14.8561766 4.9426797,14.5644205 C5.15225095,14.7863195 5.53441029,15 6.2288719,15 L6.2699643,15 C6.44666163,15 8.69030681,14.880832 9.34367601,14.7205717 C9.63543207,14.6507146 9.83678484,14.5274374 9.96828053,14.4164879 C10.387423,14.2849922 11.5462288,13.8905051 12.6392867,13.1837158 C13.4118239,12.6823885 13.6789245,12.5755482 14.2542181,12.4358341 C14.8130748,12.3002292 15.1623602,11.7906834 15.0925031,11.2277174 Z"/>
</svg>

<svg xmlns="http://www.w3.org/2000/svg" width="16" height="16" viewBox="0 0 16 16"><path fill="#2C8EBB" d="M15.093 11.228c-.074-.584-.568-.987-1.2-.978-.946.012-1.739.501-2.265.826a5 5 0 0 1-.534.291 4.4 4.4 0 0 0-.242-1.787c-.3-.822-.703-1.327-.99-1.62.332-.484.788-1.19 1.002-2.284.185-.933.127-2.383-.296-3.197a.65.65 0 0 0-.41-.333c-.075-.02-.214-.061-.49.017-.415-.86-.559-.95-.67-1.023a.84.84 0 0 0-.756-.087c-.34.124-.632.452-.908 1.036a4 4 0 0 0-.11.25 3.03 3.03 0 0 0-2.039.978c-.086.095-.255.165-.431.23h.004c-.362.128-.526.424-.728.958-.279.748.009 1.483.292 1.96-.386.345-.9.896-1.17 1.541a4.9 4.9 0 0 0-.363 2.001c-.287.304-.731.876-.78 1.517-.066.895.259 1.504.402 1.725.041.066.087.12.136.173a.95.95 0 0 0 .514 1.023c.542.288 1.298.411 1.882.12.21.221.591.435 1.286.435h.041c.177 0 2.42-.12 3.074-.28.291-.07.493-.193.624-.304.42-.131 1.578-.525 2.671-1.232.773-.502 1.04-.608 1.615-.748a1.09 1.09 0 0 0 .839-1.208"/></svg>
